src/general/components/img/savewhite.svg

<?xml version="1.0" encoding="UTF-8"?>
<svg width="50px" height="50px" viewBox="0 0 50 50" version="1.1" xmlns="http://www.w3.org/2000/svg" xmlns:xlink="http://www.w3.org/1999/xlink">
    <!-- Generator: Sketch 48.2 (47327) - http://www.bohemiancoding.com/sketch -->
    <title>Artboard</title>
    <desc>Created with Sketch.</desc>
    <defs></defs>
    <g id="Page-1" stroke="none" stroke-width="1" fill="none" fill-rule="evenodd">
        <g id="Artboard">
            <g id="Group-15" transform="translate(8.000000, 0.000000)">
                <path d="M17,27.888 C16.583,27.888 16.155,27.753 15.819,27.487 L8.917,22.029 C8.12,21.399 8.005,20.269 8.665,19.506 C9.315,18.741 10.494,18.627 11.29,19.257 L17,23.771 L22.882,19.109 C23.677,18.49 24.864,18.592 25.506,19.358 C26.167,20.122 26.061,21.251 25.264,21.881 L18.183,27.486 C17.844,27.753 17.417,27.888 17,27.888" id="Fill-1" fill="#FFFFFF" fill-rule="nonzero"></path>
                <path d="M17,25.915 C15.97,25.915 15.127,25.116 15.127,24.122 L15.127,9.774 C15.127,8.781 15.97,7.981 17,7.981 C18.029,7.981 18.863,8.781 18.863,9.774 L18.863,24.122 C18.862,25.115 18.028,25.915 17,25.915" id="Fill-3" fill="#FFFFFF" fill-rule="nonzero"></path>
                <polygon id="path-1_2_" points="34 20.105818 34 0.179818 0 0.179818 0 20.105818 0 40.041818 34 40.041818"></polygon>
                <path d="M3.734,25.446818 L17,35.926818 L30.277,25.446818 L30.277,3.765818 L3.734,3.765818 L3.734,25.446818 Z M17,40.041818 C16.583,40.041818 16.155,39.908818 15.819,39.640818 L0.681,27.684818 C0.25,27.329818 0,26.825818 0,26.292818 L0,1.971818 C0,0.977818 0.833,0.178818 1.862,0.178818 L32.139,0.178818 C33.167,0.178818 34,0.978818 34,1.971818 L34,26.292818 C34,26.825818 33.739,27.329818 33.308,27.684818 L18.183,39.640818 C17.844,39.908818 17.417,40.041818 17,40.041818 Z" id="Fill-5" fill="#FFFFFF" fill-rule="nonzero"></path>
                <path d="M32.138,49.831 L2.044,49.831 C1.014,49.831 0.182,49.011 0.182,48.037 C0.182,47.044 1.015,46.244 2.044,46.244 L32.138,46.244 C33.167,46.244 33.999,47.044 33.999,48.037 C33.999,49.011 33.167,49.831 32.138,49.831" id="Fill-8" fill="#FFFFFF" fill-rule="nonzero"></path>
            </g>
        </g>
    </g>
</svg>

<svg height="50" viewBox="0 0 50 50" width="50" xmlns="http://www.w3.org/2000/svg"><g fill="none" fill-rule="evenodd" transform="translate(8)"><path d="m17 27.888c-.417 0-.845-.135-1.181-.401l-6.902-5.458c-.797-.63-.912-1.76-.252-2.523.65-.765 1.829-.879 2.625-.249l5.71 4.514 5.882-4.662c.795-.619 1.982-.517 2.624.249.661.764.555 1.893-.242 2.523l-7.081 5.605c-.339.267-.766.402-1.183.402" fill="#fff" fill-rule="nonzero"/><path d="m17 25.915c-1.03 0-1.873-.799-1.873-1.793v-14.348c0-.993.843-1.793 1.873-1.793 1.029 0 1.863.8 1.863 1.793v14.348c-.001.993-.835 1.793-1.863 1.793" fill="#fff" fill-rule="nonzero"/><path d="m34 20.105818v-19.926h-34v19.926 19.936h34z"/><g fill="#fff" fill-rule="nonzero"><path d="m3.734 25.446818 13.266 10.48 13.277-10.48v-21.681h-26.543zm13.266 14.595c-.417 0-.845-.133-1.181-.401l-15.138-11.956c-.431-.355-.681-.859-.681-1.392v-24.321c0-.994.833-1.793 1.862-1.793h30.277c1.028 0 1.861.8 1.861 1.793v24.321c0 .533-.261 1.037-.692 1.392l-15.125 11.956c-.339.268-.766.401-1.183.401z"/><path d="m32.138 49.831h-30.094c-1.03 0-1.862-.82-1.862-1.794 0-.993.833-1.793 1.862-1.793h30.094c1.029 0 1.861.8 1.861 1.793 0 .974-.832 1.794-1.861 1.794"/></g></g></svg>
